!!!OTL: Jiemei jian mianhua
!!!ARE: Asia, China,ˇLiaoning, Yingkou
!! III, 288
!!!SCT: C1562
!!!YEM: Copyright 1995, estate of Helmut Schaffrath.
**kern
*ICvox
*Ivox
*M2/4
*k[]
*C:
{8gg
16gg
16ee
8dd
8dd
=1
8gg
16a
16cc
8dd
8dd}
=2
{8gg
16gg
16ee
16gg
16ee
16gg
16aa
=3
8.ee
16dd
8cc
8a
=4
16.a
32cc
16dd
16dd
8cc
8a
=5
8g
8f
4g}
=6
{16a
16cc
8g
8a
8a
=7
8gg
8ee
8dd
8dd}
=8
{16a
16cc
8dd
8gg
8a
=9
8g
8f
4g}
=10
{8a
16a
16ee
4dd
=11
8a
16a
16ee
4dd}
=12
{8e
8g
8e
16e
16cc
=13
8.a
16g
8f
8d
=14
8r
8a
8g
8f
=15
16g
16a
4d
8c
=16
2d}
==
!!!AGN: Xiaodiao. FunÅ shenghuo
!!!AMT: simple duple
!!!AIN: vox
!!!EED: Helmut Schaffrath
!!!EEV: 1.0
*-
